X:1
T:Voi baciatrici
T:Voi baciatrici
T:Sigismondo d'India
T:Source : Le Musische a 2 voci di S.d'India---Libro II---Venetia---R.Amadino---1615. Editor : André Vierendeels (27/07/15).
T:Notes : Original clefs : C1, C1, F4 Original note values have been halved Lyrics by Gian Battista Guarini
T:Aria
C:Sigismondo d'India
%%score [ 1 2 ] 3
L:1/8
Q:1/4=81
M:3/4
K:F
V:1 treble nm="Soprano 1" snm="S 1"
V:2 treble nm="Soprano 2" snm="S 2"
V:3 bass nm="MusicXML Part"
V:1
 A2 A2 B2 | c2 c2 d2 | e4 d2 | d4 d2 | d2 c2 d2 | e2 e2 c2 | c4 =B2 | c4 c2 |: z6 | f6- | f4 _e2 | %11
w: Voi ba- cia-|tri- ci, sa-|et- ta-|tri- ci,|pun- gen- ti|ro- se trom-|be'a- mo-|ro- se,||O|_ boc-|
w: A- mor non|tie- ne, piu|dol- ce|be- ne,|de ca- ri|ba- ci che|voi mor-|da- ci,||bel-|* le|
 d2 c2 B2 | c6 | B6 | z2 f2 f2- | f2 e2 d2 | e2 d2 c2 | d2 c2 =B2 | ^c4 d2- | d4 ^c2 | d6 | z6 | %22
w: ch'in- na- mo-|ra-|te,|mor- de-|* te, sfi-|da- te, fe-|i- t'e, pia-|ga- *||te,||
w: boc- che for-|ma-|te,|mor- de-|* te, sfi-|da- te, fe-|ri- t'e pia-|ga- *||te,||
 z2 c2 c2- | c2 B2 A2 | B2 A2 G2 | A2 B2 c2 | A6 | G6 :| %28
w: mor- de-|* te, sfi-|da- te, fe-|ri- t'e pia-|ga-|te.|
w: mor- de-|* te, sfi-|da- te, fe-|ri- t'e pia-|ga-|te.|
V:2
 ^F2 F2 G2 | A2 A2 =B2 | ^c4 d2 | d4 d2 | =B2 A2 B2 | c2 c2 e2 | d4 d2 | c4 c2 |: f4 _e2 | %9
w: Voi be- cia-|tri- ci, sa-|et- ta-|tri- ci,|pun- gen- ti|ro- se trom-|be'a- mo-|ro- se,|O boc-|
w: A- mor non|tie- ne, piu|dol- ce|be- ne,|de ca- ri|ba- ci che|voi mor-|da- ci,|bel- le|
 d2 c2 B2 | A6 | B6- | B4 A2 | B6 | z6 | z2 G2 G2 | G2 F2 E2 | F2 E2 D2 | E2 F2 G2 | E6 | D6 | %21
w: ch'i- na- mo-|ra-|||te,||mor- de-|te, sfi- da-|te, fe- ri-|t'e, pia- ga-||te,|
w: boc- che for-|ma-|||te,||mor- de-|te, sfi- da-|te, fe- ri-|t'e, pia- ga-||te,|
 z2 B2 B2- | B2 A2 G2 | A2 G2 F2 | G2 F2 E2 | ^F4 G2- | G4 ^F2 | G6 :| %28
w: mor- de-|* te, sfi-|da- te, fe-|ri- t'e, pia-|ga- *||te.|
w: mor- de-|* te, sfi-|da- te, fe-|ri- t'e, pia-|ga- *||te.|
V:3
 D,2 D,2 G,2 | F,2 E,2 D,2 | A,4 A,2 | D,4 D,2 | =B,,6 | A,,4 E,,2 | G,,6 | C,6 |: F,,6- | F,,6- | %10
 F,,6- | F,,6 | F,,6 | B,,6 | B,,6- | B,,6 | A,,6- | A,,6 | A,,6 | A,,6 | D,6 | G,,6 | _E,6 | D,6 | %24
 D,6- | D,6 | D,,6 | G,,6 :| %28

